public/icons/product.svg

<svg width="24" height="24" viewBox="0 0 24 24" fill="none" xmlns="http://www.w3.org/2000/svg">
<g clip-path="url(#clip0_20_807)">
<path d="M12.279 1.66949C12.0999 1.59772 11.9001 1.59772 11.721 1.66949L2.769 5.24999L6.375 6.69149L15.606 2.99999L12.279 1.66949ZM17.625 3.80849L8.394 7.49999L12 8.94149L21.231 5.24999L17.625 3.80849ZM22.5 6.35849L12.75 10.2585V22.1415L22.5 18.2415V6.35999V6.35849ZM11.25 22.143V10.257L1.5 6.35849V18.243L11.25 22.143ZM11.1645 0.275988C11.7008 0.061487 12.2992 0.061487 12.8355 0.275988L23.529 4.55399C23.668 4.60971 23.7872 4.70578 23.8711 4.82982C23.9551 4.95387 24 5.10021 24 5.24999V18.243C23.9998 18.5427 23.9098 18.8355 23.7417 19.0836C23.5735 19.3317 23.3348 19.5238 23.0565 19.635L12.279 23.946C12.0999 24.0178 11.9001 24.0178 11.721 23.946L0.945 19.635C0.666377 19.524 0.427414 19.3321 0.258963 19.084C0.0905126 18.8358 0.000309494 18.5429 0 18.243L0 5.24999C3.48599e-05 5.10021 0.0449156 4.95387 0.128861 4.82982C0.212805 4.70578 0.331969 4.60971 0.471 4.55399L11.1645 0.275988Z" fill="black" fill-opacity="0.25"/>
</g>
<defs>
<clipPath id="clip0_20_807">
<rect width="24" height="24" fill="white"/>
</clipPath>
</defs>
</svg>

<svg xmlns="http://www.w3.org/2000/svg" width="24" height="24" fill="none"><g clip-path="url(#a)"><path fill="#000" fill-opacity=".25" d="M12.279 1.67a.75.75 0 0 0-.558 0L2.769 5.25l3.606 1.441L15.606 3l-3.327-1.33Zm5.346 2.138L8.394 7.5 12 8.941l9.231-3.691-3.606-1.442Zm4.875 2.55-9.75 3.9v11.884l9.75-3.9V6.357ZM11.25 22.143V10.257L1.5 6.358v11.885l9.75 3.9ZM11.165.276a2.25 2.25 0 0 1 1.67 0L23.53 4.554A.75.75 0 0 1 24 5.25v12.993a1.5 1.5 0 0 1-.944 1.392L12.28 23.946a.75.75 0 0 1-.558 0L.945 19.635A1.5 1.5 0 0 1 0 18.243V5.25a.75.75 0 0 1 .471-.696L11.165.276Z"/></g><defs><clipPath id="a"><path fill="#fff" d="M0 0h24v24H0z"/></clipPath></defs></svg>
